assets/svg/1F4D9.svg

<svg xmlns="http://www.w3.org/2000/svg" viewBox="0 0 64 64" enable-background="new 0 0 64 64"><g transform="translate(6)"><path d="m.208 58.23c0 0 1.882 7.247 13.673 5.393l2-4.849-3.391-3.686-9.385-3.098-2.899 6.24" fill="#34484c"/><path d="m37.767 44.652c0 2.565-1.318 3.241-4.652 4.647l-28.463 12.02c-2.57 0-4.652-2.081-4.652-4.649v-39.998c0-2.57 1.512-3.425 4.652-4.652l28.462-12.02c2.572 0 4.652 2.086 4.652 4.652v40z" fill="#ad7029"/><path d="m2.586 60.828c0 0 10.667 3.061 11.294 2.796.619-.262-.399-4.625-.399-4.625l-3.858-4.155-3.596-.167-.631.896-2.81 5.255" fill="#34484c"/><path d="m32.447 2.77l-31.578 13.266 1.481 8.5 4.699.472 15.69-2.525 9.752-5.112 7.18-9.831c-1.57-2.812-3.874-4.555-7.224-4.77" fill="#f4f5f5"/><path d="m9.233 18.977c0-.745.134-1.339.391-1.846-3.231-.303-6.284-1.237-8.51-3.242-.741.68-1.105 1.524-1.105 2.782v39.998c0 2.568 2.088 4.649 4.654 4.649l4.593-1.937c-.001-.137-.022-.269-.022-.407v-39.997" fill="#34484c"/><path d="m47.819 48.592c0 2.568-1.322 3.242-4.651 4.65l-29.29 10.382c-2.57 0-4.656-2.081-4.656-4.649v-39.998c0-2.568 1.512-3.421 4.656-4.654l29.29-10.38c2.567 0 4.651 2.083 4.651 4.652v39.997" fill="#f79420"/><path d="m26.12 58.22c-2.57 0-4.652-2.082-4.652-4.652v-39.996c0-1.435.678-1.795 1.643-2.523l-9.233 3.27c-3.144 1.233-4.656 2.086-4.656 4.654v39.998c0 2.568 2.086 4.649 4.656 4.649l29.29-10.382c1.377-.58 2.409-1.04 3.146-1.562l-20.19 6.544" fill="#c8832e"/><g fill="#905a24"><path d="m35.691 16.15c.126.323-.037.69-.362.814l-15.575 6.01c-.324.124-.688-.039-.814-.36l0 0c-.126-.326.037-.69.36-.814l15.577-6.01c.325-.122.691.038.814.362l0 0"/><path d="m35.691 19.01c.126.323-.037.69-.362.814l-15.575 6c-.324.128-.688-.037-.814-.36l0 0c-.126-.324.041-.686.36-.81l15.577-6.01c.325-.124.691.036.814.36l0 0"/><path d="m30.397 24.02c.125.326.049.657-.173.743l-10.637 4.102c-.222.083-.502-.11-.629-.434l0 0c-.124-.323-.045-.657.177-.743l10.637-4.101c.218-.082.499.109.625.433l0 0"/></g></g></svg>

<?xml version="1.0" encoding="UTF-8" standalone="no"?>
<!-- Generator: Adobe Illustrator 16.0.0, SVG Export Plug-In . SVG Version: 6.00 Build 0)  -->

<svg
   xmlns:dc="http://purl.org/dc/elements/1.1/"
   xmlns:cc="http://creativecommons.org/ns#"
   xmlns:rdf="http://www.w3.org/1999/02/22-rdf-syntax-ns#"
   xmlns:svg="http://www.w3.org/2000/svg"
   xmlns="http://www.w3.org/2000/svg"
   xmlns:sodipodi="http://sodipodi.sourceforge.net/DTD/sodipodi-0.dtd"
   xmlns:inkscape="http://www.inkscape.org/namespaces/inkscape"
   version="1.1"
   id="Layer_1"
   x="0px"
   y="0px"
   width="64px"
   height="64px"
   viewBox="0 0 64 64"
   enable-background="new 0 0 64 64"
   xml:space="preserve"
   inkscape:version="0.48.5 r10040"
   sodipodi:docname="1F4D9.svg"
   inkscape:export-filename="D:\TESTINGEMOJI\SVGTEST\1F4D9.png"
   inkscape:export-xdpi="90"
   inkscape:export-ydpi="90"><metadata
   id="metadata41789"><rdf:RDF><cc:Work
       rdf:about=""><dc:format>image/svg+xml</dc:format><dc:type
         rdf:resource="http://purl.org/dc/dcmitype/StillImage" /><dc:title></dc:title></cc:Work></rdf:RDF></metadata><defs
   id="defs41787" /><sodipodi:namedview
   pagecolor="#ffffff"
   bordercolor="#666666"
   borderopacity="1"
   objecttolerance="10"
   gridtolerance="10"
   guidetolerance="10"
   inkscape:pageopacity="0"
   inkscape:pageshadow="2"
   inkscape:window-width="640"
   inkscape:window-height="480"
   id="namedview41785"
   showgrid="false"
   inkscape:zoom="3.6875"
   inkscape:cx="32"
   inkscape:cy="32"
   inkscape:window-x="890"
   inkscape:window-y="214"
   inkscape:window-maximized="0"
   inkscape:current-layer="Layer_1" />
<g
   id="g41763"
   transform="translate(6,0)">
	<path
   d="m 0.208,58.231 c 0,0 1.882,7.247 13.673,5.393 l 2.002,-4.849 -3.391,-3.686 -9.385,-3.098 -2.899,6.24 z"
   id="path41765"
   inkscape:connector-curvature="0"
   style="fill:#34484c" />
	<path
   d="m 37.767,44.652 c 0,2.565 -1.318,3.241 -4.652,4.647 L 4.652,61.318 C 2.082,61.318 0,59.237 0,56.669 V 16.671 c 0,-2.57 1.512,-3.425 4.652,-4.652 L 33.114,0 c 2.572,0 4.652,2.086 4.652,4.652 v 40 z"
   id="path41767"
   inkscape:connector-curvature="0"
   style="fill:#ad7029" />
	<path
   d="m 2.586,60.828 c 0,0 10.667,3.061 11.294,2.796 0.619,-0.262 -0.399,-4.625 -0.399,-4.625 L 9.623,54.844 6.027,54.677 5.396,55.573 2.586,60.828 z"
   id="path41769"
   inkscape:connector-curvature="0"
   style="fill:#34484c" />
	<path
   d="m 32.447,2.77 -31.578,13.266 1.481,8.5 4.699,0.472 15.69,-2.525 9.752,-5.112 7.18,-9.831 C 38.101,4.728 35.797,2.985 32.447,2.77 z"
   id="path41771"
   inkscape:connector-curvature="0"
   style="fill:#f4f5f5" />
	<path
   d="m 9.233,18.977 c 0,-0.745 0.134,-1.339 0.391,-1.846 -3.231,-0.303 -6.284,-1.237 -8.51,-3.242 -0.741,0.68 -1.105,1.524 -1.105,2.782 v 39.998 c 0,2.568 2.088,4.649 4.654,4.649 L 9.256,59.381 C 9.246,59.244 9.234,59.112 9.234,58.974 V 18.977 z"
   id="path41773"
   inkscape:connector-curvature="0"
   style="fill:#34484c" />
	<path
   d="m 47.819,48.592 c 0,2.568 -1.322,3.242 -4.651,4.65 L 13.881,63.624 c -2.57,0 -4.656,-2.081 -4.656,-4.649 V 18.977 c 0,-2.568 1.512,-3.421 4.656,-4.654 L 43.168,3.943 c 2.567,0 4.651,2.083 4.651,4.652 v 39.997 z"
   id="path41775"
   inkscape:connector-curvature="0"
   style="fill:#f79420" />
	<path
   d="m 26.124,58.224 c -2.57,0 -4.652,-2.082 -4.652,-4.652 V 13.576 c 0,-1.435 0.678,-1.795 1.643,-2.523 l -9.233,3.27 c -3.144,1.233 -4.656,2.086 -4.656,4.654 v 39.998 c 0,2.568 2.086,4.649 4.656,4.649 L 43.169,53.242 c 1.377,-0.58 2.409,-1.04 3.146,-1.562 l -20.191,6.544 z"
   id="path41777"
   inkscape:connector-curvature="0"
   style="fill:#c8832e" />
	<path
   d="m 35.691,16.15 c 0.126,0.323 -0.037,0.69 -0.362,0.814 L 19.754,22.969 C 19.43,23.093 19.066,22.93 18.94,22.609 l 0,0 c -0.126,-0.326 0.037,-0.69 0.36,-0.814 l 15.577,-6.007 c 0.325,-0.122 0.691,0.038 0.814,0.362 l 0,0 z"
   id="path41779"
   inkscape:connector-curvature="0"
   style="fill:#905a24" />
	<path
   d="m 35.691,19.013 c 0.126,0.323 -0.037,0.69 -0.362,0.814 L 19.754,25.832 C 19.43,25.96 19.066,25.795 18.94,25.472 l 0,0 c -0.126,-0.324 0.041,-0.686 0.36,-0.81 l 15.577,-6.009 c 0.325,-0.124 0.691,0.036 0.814,0.36 l 0,0 z"
   id="path41781"
   inkscape:connector-curvature="0"
   style="fill:#905a24" />
	<path
   d="m 30.397,24.015 c 0.125,0.326 0.049,0.657 -0.173,0.743 L 19.587,28.86 c -0.222,0.083 -0.502,-0.11 -0.629,-0.434 l 0,0 c -0.124,-0.323 -0.045,-0.657 0.177,-0.743 l 10.637,-4.101 c 0.218,-0.082 0.499,0.109 0.625,0.433 l 0,0 z"
   id="path41783"
   inkscape:connector-curvature="0"
   style="fill:#905a24" />
</g>
</svg>
